X: 232
T: Ci pian
%%abc-version 2.0
%%abcx-abcm2ps-target-version 5.9.1 (29 Sep 2008)
%%abc-creator hum2abc beta
%%abcx-conversion-date 2013/10/02 07:52:29
%%abc-edited-by Helmut Schaffrath
%%humdrum-veritas 2379835338
%%humdrum-veritas-data 1956285293
%%continueall 1
%%barnumbers 0
L: 1/8
M: 2/4
K: D
B2B2 [I:setbarnb 1]| 
z d B A | 
A FA2- | 
A2F A | 
B2d2 | 
zA2F | 
A FE2- | 
E2B2 | 
B A B c | 
B B A F | 
A4 | 
F AB2 | 
B c B A | 
G F E D | 
E4 | 
F ED2 | 
E4 | 
A3d | 
B A F E | 
D4 | 
B,3D | 
E3A | 
D E c B | 
A2D2 | 
B A G F | 
A3B | 
A4 |]  



